src/lib/packages/icons/src/assets/line/note-list-square.svg

<svg xmlns="http://www.w3.org/2000/svg" width="24" height="24" fill="none"><path fill="currentColor" d="M17.625 2.25H6.375c-2.66 0-4.125 1.465-4.125 4.125v11.25c0 2.66 1.465 4.125 4.125 4.125h11.25c2.66 0 4.125-1.465 4.125-4.125V6.375c0-2.66-1.465-4.125-4.125-4.125Zm2.625 15.375c0 1.84-.785 2.625-2.625 2.625H6.375c-1.84 0-2.625-.785-2.625-2.625V6.375c0-1.84.785-2.625 2.625-2.625h11.25c1.84 0 2.625.785 2.625 2.625v11.25ZM16.75 9.5a.75.75 0 0 1-.75.75h-5a.75.75 0 0 1 0-1.5h5a.75.75 0 0 1 .75.75Zm0 5a.75.75 0 0 1-.75.75h-5a.75.75 0 0 1 0-1.5h5a.75.75 0 0 1 .75.75Zm-8-4.999a.75.75 0 1 1-1.5 0 .75.75 0 0 1 1.5 0Zm0 4.999a.75.75 0 1 1-1.5 0 .75.75 0 0 1 1.5 0Z"/></svg>

<svg width="24" height="24" viewBox="0 0 24 24" fill="none" xmlns="http://www.w3.org/2000/svg">
<path d="M17.625 2.25H6.375C3.715 2.25 2.25 3.715 2.25 6.375V17.625C2.25 20.285 3.715 21.75 6.375 21.75H17.625C20.285 21.75 21.75 20.285 21.75 17.625V6.375C21.75 3.715 20.285 2.25 17.625 2.25ZM20.25 17.625C20.25 19.465 19.465 20.25 17.625 20.25H6.375C4.535 20.25 3.75 19.465 3.75 17.625V6.375C3.75 4.535 4.535 3.75 6.375 3.75H17.625C19.465 3.75 20.25 4.535 20.25 6.375V17.625ZM16.75 9.5C16.75 9.914 16.414 10.25 16 10.25H11C10.586 10.25 10.25 9.914 10.25 9.5C10.25 9.086 10.586 8.75 11 8.75H16C16.414 8.75 16.75 9.086 16.75 9.5ZM16.75 14.5C16.75 14.914 16.414 15.25 16 15.25H11C10.586 15.25 10.25 14.914 10.25 14.5C10.25 14.086 10.586 13.75 11 13.75H16C16.414 13.75 16.75 14.086 16.75 14.5ZM8.75 9.50098C8.75 9.91498 8.414 10.251 8 10.251C7.586 10.251 7.25 9.91498 7.25 9.50098C7.25 9.08698 7.586 8.75098 8 8.75098C8.414 8.75098 8.75 9.08698 8.75 9.50098ZM8.75 14.5C8.75 14.914 8.414 15.25 8 15.25C7.586 15.25 7.25 14.914 7.25 14.5C7.25 14.086 7.586 13.75 8 13.75C8.414 13.75 8.75 14.086 8.75 14.5Z" fill="currentColor"/>
</svg>
